www/assets/images/test_icons/flags/AW.svg

<svg fill="none" height="15" viewBox="0 0 21 15" width="21" xmlns="http://www.w3.org/2000/svg" xmlns:xlink="http://www.w3.org/1999/xlink"><mask id="a" height="15" maskUnits="userSpaceOnUse" width="21" x="0" y="0"><path d="m19 0h-17c-1.10457 0-2 .89543-2 2v11c0 1.1046.89543 2 2 2h17c1.1046 0 2-.8954 2-2v-11c0-1.10457-.8954-2-2-2z" fill="#fff"/></mask><g mask="url(#a)"><path d="m19 0h-17c-1.10457 0-2 .89543-2 2v11c0 1.1046.89543 2 2 2h17c1.1046 0 2-.8954 2-2v-11c0-1.10457-.8954-2-2-2z" fill="#3d87e0"/><g clip-rule="evenodd" fill-rule="evenodd"><path d="m4.485 4.485c.87-.055 1.515-.25 1.515-.485 0-.234-.645-.43-1.515-.485-.055-.87-.25-1.515-.485-1.515-.234 0-.43.645-.485 1.515-.87.055-1.515.25-1.515.485 0 .234.645.43 1.515.485.055.87.25 1.515.485 1.515.234 0 .43-.645.485-1.515z" fill="#d4062f"/><path d="m4.485 4.485c.87-.055 1.515-.25 1.515-.485 0-.234-.645-.43-1.515-.485-.055-.87-.25-1.515-.485-1.515-.234 0-.43.645-.485 1.515-.87.055-1.515.25-1.515.485 0 .234.645.43 1.515.485.055.87.25 1.515.485 1.515.234 0 .43-.645.485-1.515zm.03.5.47-.47c-.075 1.198-.325 1.985-.985 1.985s-.91-.788-.984-1.984l.468.468c-1.196-.074-1.984-.324-1.984-.984s.788-.91 1.984-.984l-.468.468c.074-1.196.324-1.984.984-1.984s.91.788.984 1.984l-.468-.468c1.196.074 1.984.324 1.984.984s-.788.91-1.984.984z" fill="#fff"/><path d="m0 9h21v1h-21zm0 2h21v1h-21z" fill="#fad800"/></g><path d="m19 .5h-17c-.82843 0-1.5.67157-1.5 1.5v11c0 .8284.67157 1.5 1.5 1.5h17c.8284 0 1.5-.6716 1.5-1.5v-11c0-.82843-.6716-1.5-1.5-1.5z" stroke="#000" stroke-opacity=".1"/></g></svg>

<svg width="21" height="15" viewBox="0 0 21 15" fill="none" xmlns="http://www.w3.org/2000/svg">
<mask id="mask0_3_203" style="mask-type:alpha" maskUnits="userSpaceOnUse" x="0" y="0" width="21" height="15">
<path d="M19 0H2C0.89543 0 0 0.89543 0 2V13C0 14.1046 0.89543 15 2 15H19C20.1046 15 21 14.1046 21 13V2C21 0.89543 20.1046 0 19 0Z" fill="white"/>
</mask>
<g mask="url(#mask0_3_203)">
<path d="M19 0H2C0.89543 0 0 0.89543 0 2V13C0 14.1046 0.89543 15 2 15H19C20.1046 15 21 14.1046 21 13V2C21 0.89543 20.1046 0 19 0Z" fill="#3D87E0"/>
<path fill-rule="evenodd" clip-rule="evenodd" d="M4.485 4.485C5.355 4.43 6 4.235 6 4C6 3.766 5.355 3.57 4.485 3.515C4.43 2.645 4.235 2 4 2C3.766 2 3.57 2.645 3.515 3.515C2.645 3.57 2 3.765 2 4C2 4.234 2.645 4.43 3.515 4.485C3.57 5.355 3.765 6 4 6C4.234 6 4.43 5.355 4.485 4.485Z" fill="#D4062F"/>
<path fill-rule="evenodd" clip-rule="evenodd" d="M4.485 4.485C5.355 4.43 6 4.235 6 4C6 3.766 5.355 3.57 4.485 3.515C4.43 2.645 4.235 2 4 2C3.766 2 3.57 2.645 3.515 3.515C2.645 3.57 2 3.765 2 4C2 4.234 2.645 4.43 3.515 4.485C3.57 5.355 3.765 6 4 6C4.234 6 4.43 5.355 4.485 4.485ZM4.515 4.985L4.985 4.515C4.91 5.713 4.66 6.5 4 6.5C3.34 6.5 3.09 5.712 3.016 4.516L3.484 4.984C2.288 4.91 1.5 4.66 1.5 4C1.5 3.34 2.288 3.09 3.484 3.016L3.016 3.484C3.09 2.288 3.34 1.5 4 1.5C4.66 1.5 4.91 2.288 4.984 3.484L4.516 3.016C5.712 3.09 6.5 3.34 6.5 4C6.5 4.66 5.712 4.91 4.516 4.984L4.515 4.985Z" fill="white"/>
<path fill-rule="evenodd" clip-rule="evenodd" d="M0 9H21V10H0V9ZM0 11H21V12H0V11Z" fill="#FAD800"/>
<path d="M19 0.5H2C1.17157 0.5 0.5 1.17157 0.5 2V13C0.5 13.8284 1.17157 14.5 2 14.5H19C19.8284 14.5 20.5 13.8284 20.5 13V2C20.5 1.17157 19.8284 0.5 19 0.5Z" stroke="black" stroke-opacity="0.1"/>
</g>
</svg>
